X:1
T:Victory Through Grace
T:Victory Through Grace
T:Scott Werdebaugh, 2018
T:Fanny Crosby, 1890, modified by Scott W.  
T:© 2018 Scott Werdebaugh &amp; New Heart Music - May freely copy and use for Christian worship or devotions with no alterations. All other rights reserved.
T:© 2018 Scott Werdebaugh &amp; New Heart Music - May freely copy and use for Christian worship or devotions with no alterations. All other rights reserved.
C:Scott Werdebaugh, 2018
Z:© 2018 Scott Werdebaugh & New Heart Music - May freely copy and use for
Z:Christian worship or devotions with no alterations. All other rights reserved.
%%score 1 ( 2 3 )
L:1/8
Q:1/4=132
M:3/4
K:C
V:1 treble 
V:2 bass 
V:3 bass 
V:1
"^Confidently" [CE]2 [CE]2 [DF]2 | [EG]4 [EG]2 | [CA]4 [DB]2 | [CA]4 [DG]2 | [Fc]2 [FB]2 [FA]2 | %5
w: 1.~Con- quer- ing|now and|still to|con- quer,|Rid- eth a|
w: 2.~Con- quer- ing|now and|still to|con- quer,|Who is this|
w: 3.~Con- quer- ing|now and|still to|con- quer,|Je- sus, Thou|
 ([Ec]4 [Fd]2) | ([Ec]2 [DB]2) [Fc]2 | [DB]4 z2 | [CE]2 [CE]2 [DF]2 | [EG]4 [EG]2 | [CA]4 [DB]2 | %11
w: king *|in * His|might;|Lead- ing the|host of|all the|
w: won- *|der- * ful|king?|Whence are the|ar- mies|which He|
w: rul- *|er * of|all,|Thrones and their|scep- ters|all shall|
 [CA]4 [DG]2 | [Fc]2 [FB]2 [FA]2 | ([EG]4 [Ec]2) | [Fc]4 [CA]2 | [DG]4 z2 | [EG]2 [CE]2 [DF]2 | %17
w: faith- ful|In- to the|midst *|of the|fight;|See them with|
w: lead- eth,|While of His|glo- *|ry they|sing?|He is our|
w: per- ish,|Crowns and their|splen- *|dor shall|fall,|Yet shall the|
 [EG]4 [EG][EG] | ([FA]4 [DB]2) | [Ec]4 z2 | [Fc]2 [FB]2 [FA]2 | [EG]4 [Ec][DB] | [Ec]4 z2 | %23
w: cour- age ad-|vanc- *|ing,|Clad in their|bril- liant ar-|ray,|
w: Lord and Re-|deem- *|er,|Sav- ior and|mon- arch di-|vine;|
w: ar- mies Thou|lead- *|est,|Faith- ful and|true to the|last,|
 [EG]2 [CE]2 [DF]2 | [EG]4 [EG]2 | ([CA]4 [DB]2) | [CA]4 [EG]2 | [CA]4 [DB][Ec] | [Fc]4 [Fd][Fd] | %29
w: Shout- ing the|name of|their *|lead- er,|Hear them ex-|ult- ing- ly|
w: They are the|stars that|for- *|ev- er|Bright in His|king- dom shall|
w: Find in Thy|man- sions|e- *|ter- nal|Rest, when their|war- fare is|
 !fermata![Ec]4 z2 ||"^Refrain" [Ec]2 [Ec]2 [DB]2 | [CA]4 [EG][EG] | ([FA]4 [FB][FA]) | [EG]4 z2 | %34
w: say:|||||
w: shine.|Not to the|strong is the|bat- * *|tle,|
w: past.|||||
 [Ec]2 [Ec]2 [DB]2 | [CA]4 [EG][EG] | ([Ec]4 [DB][CA] | [DB]4) z2 | [Ec]2 [Ec]2 [DB]2 | %39
w: |||||
w: Not to the|swift is the|race, * *||Yet to the|
w: |||||
 [CA]4 [EG][EG] | ([FA]4 [DB]2) | [Ec]4 z2 | [Fc]2 [FB]2 [FA]2 | [EG]4 [Ec][Fd] | %44
w: |||||
w: true and the|faith- *|ful|Vic- t’ry is|prom- ised through|
w: |||||
 !fermata![Ec]6"^Play 3 times" :| x8 |] %46
w: ||
w: grace.||
w: ||
V:2
 [C,G,]2 [C,G,]2 [G,B,]2 | [C,C]4 [C,C]2 | [F,,F,]4 [G,,G,]2 | [F,,F,]4 [G,,B,]2 | %4
 [F,,A,]2 [D,G,]2 [F,C]2 | ([C,G,]4 [G,,B,]2) | G,4 [F,,A,]2 | [G,,G,]4 z2 | %8
 [C,G,]2 [C,G,]2 [G,B,]2 | [C,C]4 [C,C]2 | [F,,F,]4 [G,,G,]2 | [F,,F,]4 [G,,B,]2 | %12
 [F,A,]2 [D,G,]2 [F,C]2 | ([C,C]4 [C,G,]2) | [F,A,]4 [F,,F,]2 | [G,,B,]4 z2 | %16
 [C,C]2 [C,G,]2 [G,B,]2 | [C,C]4 [C,C][C,C] | ([F,C]4 [G,,G,]2) | [C,G,]4 z2 | %20
 [F,A,]2 [D,G,]2 [F,C]2 | [C,C]4 [C,G,][G,,G,] | [C,G,]4 z2 | [C,C]2 [C,G,]2 [G,B,]2 | %24
 [C,C]4 [C,C]2 | ([F,,A,]4 [G,,G,]2) | [F,,F,]4 [C,C]2 | [F,,F,]4 [G,,G,][C,G,] | %28
 [F,A,]4 [G,,B,][G,,B,] | !fermata![C,G,]4 z2 || [C,G,]2 [C,G,]2 [G,,G,]2 | [F,,F,]4 [C,C][C,C] | %32
 ([F,C]4 [D,G,][F,C]) | [C,C]4 z2 | [C,G,]2 [C,G,]2 [G,,G,]2 | [F,,F,]4 [C,C][C,C] | %36
 ([C,G,]4 [G,,G,][F,,A,] | [G,,G,]4) z2 | [C,G,]2 [C,G,]2 [G,,G,]2 | [F,,F,]4 [C,C][C,C] | %40
 ([F,C]4 [G,,G,]2) | [C,G,]4 z2 | [F,A,]2 [D,G,]2 [F,C]2 | [C,C]4 [C,G,][G,,B,] | %44
 !fermata![C,G,]6"^Play 3 times" :|[M:4/4][K:bass] x8 |] %46
V:3
 x6 | x6 | x6 | x6 | x6 | x6 | (C,2 G,,2) x2 | x6 | x6 | x6 | x6 | x6 | x6 | x6 | x6 | x6 | x6 | %17
 x6 | x6 | x6 | x6 | x6 | x6 | x6 | x6 | x6 | x6 | x6 | x6 | x6 || x6 | x6 | x6 | x6 | x6 | x6 | %36
 x6 | x6 | x6 | x6 | x6 | x6 | x6 | x6 | x6 :|[M:4/4][K:bass] x8 |] %46

